X:11
T:Tender Trap, The
C:Bob Tracey
M:3/4
R:waltz
K:D
GF|E2 EF GA|Be B2 BA|GF GA BG|AF dA FG|\
   ED EF GA|Be B2 BA|Fd AF DF|FG/F/ E2:|
EF|G2 GF G/A/B|AF d2 c/d/^d|e=c g2 ge|fd a2 ga|\
   bge gfd |e=cB ecA|GF AF DF|FG/F/ E2:|

